X: 11749
T: Electric Chopsticks
R: reel
M: 4/4
K: Amixolydian
|:c3 d cBAB|c2 cd cBAc|d2 de dcBc|dGBd edBd|
c2 cd cBAB|c2 cd cBAc|GddG ddGd|1 BeeG A2 AB:|2 BeeG A2 cd||
|:e3 a fa e2-|e2 ^ga faea|d2 de dcBc|dGBd edBd|
e3 a fa e2-|e2 ^ga faea|GddG ddGd|1 BeeG A2 cd:|2 BeeG A2 AB||

